X: 50
T:Duchess of Devonshire. BF13.049
M:4/4
L:1/8
Q:180
S:J.Lishman()MS,c1825,Lakes,Browne Coll.
R:Reel
O:England
A:Lakes
Z:vmp.Chris Partington
K:C
c2ec dBAG|A/B/c GE FD"qu"D2|c2ec dBAG|A/B/c GF EC"qu"C2:|!
|:ecgc dBgB|cAdc BGG2|AFcF GEcE|FDGF ECC2|!
egcg dgBg|cAdc BGG2|AcFc GcEc|Fagf ecc2:|]
